X: 753
T: Old Mother Flanagan
B: jims roots
M:C|
L:1/8
R: reel
Q: 1/4=100
K:A
V:1 
%O:American (Appalachian)
%Z:id:hn-reel-848
"A"a2a2 fecd | efec "(E)"BAFG | "A"ABAF EFAB | cBcd "E7"e2 (3efg |
"A"a2a2 fecd | efec "(E)"BAFG | "A"ABAF EFAB |[1 "E"cABG "A"A2 (3efg :|[2 "E"cABG "A"A2E2 ||
|: "A"ABAF EFAB | c2cA "(E)"BAFG | "A"ABAF EFAB | cBcd "E7"e4 |
"A"d2fd c2ec | BABc "A"BAF2 | ABAF EFAB |[1 cABG A2E2 :|[2 cABG A2 (3efg ||
|: "A"agae fecB | c2c2 "(E)"BAFE | "A"ABAF EFAB | cAcd "E7"e4|
"A"a2ae fecB | c2c2 "A"BAFE | ABAF EFAB | cAB2 A4 :|
|: "A"ABAF EFAB | c2c2 "(E)"BAFE | "A"ABAF EFAB | cBcd "E7"e4|
"A"d2fd c2ec | BABc "A"BAFE | ABAF EFAB | cAB2 A4 :|
% abcbook-tune_id 6298c2798400129548be7a57


% abcbook-boost 0
% abcbook-tablature 
% abcbook-transpose 
% abcbook-lastupdated 1654178426042
% abcbook-soundfonts 
% abcbook-repeats 1


